X:706
%%etbk:tnset id:442,pos:1,rep:3x,ant:
%%etbk:wsite https://thesession.org/tunes/2172
%%etbk:pldat 2016-08-04T18:54,2016-07-22T15:48,2016-04-02T15:09,2016-03-22T16:28,2016-02-10T17:27,2016-01-12T17:32,2016-01-02T13:37,2015-12-28T17:57,2015-12-23T17:02,2015-12-21T19:28,2015-12-16T17:18,2015-08-19T17:16,2015-08-15T14:01,2015-08-13T18:40,2015-08-10T18:56,2015-08-09T15:15,2015-06-03T18:30,2015-05-31T16:23,2015-05-10T15:07,2015-05-05T17:52,2015-05-02T16:41
T: Little Katie Taylor
Z: Piano Box Version by Martin Fleischmann
H: Created 2015-04-29 /  Last Modified 2016-07-22
R: reel
M: 4/4
L: 1/8
K: Dmaj
|: "D"D2 FA "A"!3!GE!4!AG | "D"!2!FDF!3!A !5!d2 !2!ef | "A"!4!geag "D"!3!f!1!dd!4!c | "A"!2!A!1!GGG !2!EzAF |
"D"D2 FA "A"GEAG | "D"FDFA d2 ef | "A"!4!g2!5!ag !3!fd!2!cd |[1 "D"!4!eddc dBAF :|[2 eddc d3 e ||
"D"f3a "G"g2 ag | "D"fdaf "G"g2 ag | "D"f!1!d!4!=cA "G"!1!G2 !2!F!3!G | "A"!1!AB!3!cA !3!dcA!4!e |
 !3!fdaf g2 ag | fdaf g2 ag | fd=cA G2 FG | !1!ABcA d3e | 
f3a g2 ag | fdaf g2 ag | fd=cA G2 FG | !1!ABcA !4!dc!1!AF | 
D2 FA GEAG | FDFA d2 ef | gbag fdcd | eddc dBAF|


